public/images/svg/logo-symbol.svg

<svg width="44" height="44" viewBox="0 0 44 44" fill="none" xmlns="http://www.w3.org/2000/svg">
<g opacity="0.8">
<path fill-rule="evenodd" clip-rule="evenodd" d="M14.4674 1.91309H37.1848C40.9487 1.91309 44 5.28555 44 9.44569V34.5544C44 38.7145 40.9487 42.087 37.1848 42.087H14.4674C10.7034 42.087 7.65216 38.7145 7.65216 34.5544L7.65216 9.44569C7.65216 5.28555 10.7034 1.91309 14.4674 1.91309Z" fill="#0D6EFD" fill-opacity="0.2"/>
<path fill-rule="evenodd" clip-rule="evenodd" d="M8.13044 1.91309H32.0435C36.0055 1.91309 39.2174 5.28555 39.2174 9.44569V34.5544C39.2174 38.7145 36.0055 42.087 32.0435 42.087H8.13044C4.1684 42.087 0.956527 38.7145 0.956528 34.5544L0.956528 9.44569C0.956527 5.28555 4.1684 1.91309 8.13044 1.91309Z" fill="#0D6EFD"/>
<g opacity="0.7">
<path opacity="0.3" fill-rule="evenodd" clip-rule="evenodd" d="M15.2902 18.3562H14.3097C14.2591 18.3562 14.1842 18.4265 14.1813 18.473L13.4589 30.1476L26.9548 30.1451L26.2253 18.473C26.2225 18.4283 26.1457 18.3562 26.0969 18.3562H25.1164V20.3214C25.1164 20.8641 24.6765 21.3041 24.1338 21.3041C23.5911 21.3041 23.1512 20.8641 23.1512 20.3214V18.3562H17.2554V20.3214C17.2554 20.8641 16.8155 21.3041 16.2728 21.3041C15.7301 21.3041 15.2902 20.8641 15.2902 20.3214V18.3562Z" fill="white"/>
<path fill-rule="evenodd" clip-rule="evenodd" d="M20.2033 11.4783C22.9153 11.4783 25.1164 13.6796 25.1164 16.3891L26.0969 16.3914C27.1835 16.3914 28.1192 17.2704 28.1867 18.3508L28.9244 30.1539C28.9921 31.2361 28.1698 32.1133 27.0865 32.1133H13.3201C12.2374 32.1133 11.4146 31.2344 11.4821 30.1539L12.2198 18.3508C12.2875 17.2686 13.2213 16.3914 14.3096 16.3914H15.2902C15.2902 13.6781 17.493 11.4783 20.2033 11.4783ZM23.1511 16.3915C23.1511 14.765 21.8299 13.4436 20.2033 13.4436C18.5778 13.4436 17.2554 14.7642 17.2554 16.3892L23.1511 16.3915ZM15.2902 18.3566H14.3096C14.2591 18.3566 14.1842 18.4269 14.1813 18.4733L13.4589 30.148L26.9548 30.1455L26.2253 18.4733C26.2225 18.4286 26.1457 18.3566 26.0969 18.3566H25.1164V20.3218C25.1164 20.8645 24.6765 21.3044 24.1338 21.3044C23.5911 21.3044 23.1512 20.8645 23.1512 20.3218V18.3566H17.2554V20.3218C17.2554 20.8645 16.8155 21.3044 16.2728 21.3044C15.7301 21.3044 15.2902 20.8645 15.2902 20.3218V18.3566Z" fill="white"/>
</g>
</g>
</svg>

<svg width="44" height="44" fill="none" xmlns="http://www.w3.org/2000/svg"><g opacity=".8" fill-rule="evenodd" clip-rule="evenodd"><path d="M14.467 1.913h22.718C40.949 1.913 44 5.286 44 9.446v25.108c0 4.16-3.051 7.533-6.815 7.533H14.467c-3.764 0-6.815-3.373-6.815-7.533V9.446c0-4.16 3.051-7.533 6.815-7.533Z" fill="#0D6EFD" fill-opacity=".2"/><path d="M8.13 1.913h23.913c3.962 0 7.174 3.373 7.174 7.533v25.108c0 4.16-3.212 7.533-7.173 7.533H8.13c-3.962 0-7.173-3.373-7.173-7.533V9.446c0-4.16 3.211-7.533 7.173-7.533Z" fill="#0D6EFD"/><g opacity=".7" fill="#fff"><path opacity=".3" d="M15.29 18.356h-.98c-.05 0-.126.07-.129.117l-.722 11.675 13.496-.003-.73-11.672c-.003-.045-.08-.117-.128-.117h-.98v1.965a.983.983 0 1 1-1.966 0v-1.965h-5.896v1.965a.983.983 0 1 1-1.965 0v-1.965Z"/><path d="M20.203 11.478a4.915 4.915 0 0 1 4.913 4.911l.98.002c1.087 0 2.023.88 2.09 1.96l.738 11.803a1.819 1.819 0 0 1-1.837 1.96H13.32a1.82 1.82 0 0 1-1.838-1.96l.738-11.803c.067-1.082 1.001-1.96 2.09-1.96h.98a4.915 4.915 0 0 1 4.913-4.913Zm2.948 4.914a2.95 2.95 0 0 0-2.948-2.948 2.95 2.95 0 0 0-2.948 2.945l5.896.003Zm-7.86 1.965h-.981c-.05 0-.126.07-.129.116l-.722 11.675 13.496-.003-.73-11.672c-.003-.044-.08-.116-.128-.116h-.98v1.965a.983.983 0 1 1-1.966 0v-1.965h-5.896v1.965a.983.983 0 1 1-1.965 0v-1.965Z"/></g></g></svg>
